X: 6
T: Cat Rambles To The Child's Saucepan, The
Z: Erik-Fiddler
S: https://thesession.org/tunes/365#setting52179
R: slide
M: 12/8
L: 1/8
K: Dmaj
A|:d2 e {g}f2 e dcd ~B(3B/A/B/B|g2 A cBA {f}e2 A cBA|
d2 e ~(3f/e/f/f e dcd ~B(3B/A/B/B|g2 A cBA [D3d3] [D2d2] z:|
|:d2 e f2 a baf a/b/af|e2 A cBA {f}e2 A cBA|
[D2d2] e f2 a baf a/b/af|[A2e2] A cBA [D3d3] [D2d2] z:|

%-------------------- TUNE SEPARATOR --------------------%

